X:40
T:Metsakukkia  (Forest flowers) (harmony)
M:3/4
L:1/8
Q:1/4=140
R:waltz
K:Gm
D2 |: "Gm" B,6 | [D6G,6] | G,2 B,2 D2 | [B4G4] D2 |
B,6 | [D6G,6] | "Cm" G,2 C2 E2 | G6 | !
E6 | [E6C6] | "Gm" G,2 B,2 D2 | [D6B,6] |
"D7" [D6A,6] | A,2 B,2 C2 | "Gm" ([D6B,6] |[1 [D4G,4]) "fine" D2 :|
[2 [D6G,6]) | !
|: "F7" A,2 C2 E2 | F2 A4 | "Bb" B2 F2 D2 | B,2 D2 F2 |
"D7" ^F2 (D4 | D2) C4 | "Gm" B,2 D2 G2 | D2 B,4 | !
G,2 B,2 D2 | G,2 B,2 D2 | "D7" A,2 C2 (D2 | D2) C2 ^F2 |
G4 D2 | C2 D2 C2 |[1 "Gm" B,2 D2 G2 | [D6B,6] :|
[2 "Gm" B,2 D2 G2 | [D4B,4] z2 | !
|: "Gm" B2 z4 | G2 z4 | D2 z4 | B,2 z2 D2 |
"Cm" E2 G4 | A2 c4 | "Gm" d2 (B2 A2 | G6) | !
"D7" A2 D2 C2 | A,6 | "Gm" B,2 D4 | D2 G4 |
"D7" A2 D2 C2 | ^F2 A4 |[1 "Gm" G2 D2 B,2 | [D2G,2] z4 :|
[2 "Gm" G2 D2 B,2 | "D.C. al fine" [D6G,6] z4 ||
